source/assets/images/flags/India.svg

<?xml version="1.0" encoding="UTF-8" standalone="no"?>
<svg width="900px" height="600px" viewBox="0 0 900 600" version="1.1" xmlns="http://www.w3.org/2000/svg" xmlns:xlink="http://www.w3.org/1999/xlink" xmlns:sketch="http://www.bohemiancoding.com/sketch/ns">
    <!-- Generator: Sketch 3.3.3 (12072) - http://www.bohemiancoding.com/sketch -->
    <title>India</title>
    <desc>Created with Sketch.</desc>
    <defs></defs>
    <g id="Page-1" stroke="none" stroke-width="1" fill="none" fill-rule="evenodd" sketch:type="MSPage">
        <g id="India" sketch:type="MSLayerGroup">
            <path d="M0,600 L900,600 L900,0 L0,0 L0,600 Z" id="Fill-1" fill="#EC9141" sketch:type="MSShapeGroup"></path>
            <path d="M0,400 L900,400 L900,199.999333 L0,199.999333 L0,400 Z" id="Fill-2" fill="#FFFFFF" sketch:type="MSShapeGroup"></path>
            <path d="M0,600 L900,600 L900,400 L0,400 L0,600 Z" id="Fill-3" fill="#1E8040" sketch:type="MSShapeGroup"></path>
            <path d="M450.718,313.982 L452.4,328 L450,370 L447.6,328 L449.282,313.982 C448.528667,313.944 447.791333,313.846 447.074,313.694 L445.071333,327.666667 L431.882667,367.614667 L440.434667,326.424667 L445.686667,313.322667 C444.974,313.092667 444.286667,312.806667 443.63,312.47 L438.078667,325.448667 L415,360.622 L433.921333,323.048667 L442.386667,311.750667 C441.762,311.345333 441.171333,310.891333 440.620667,310.394 L431.898,321.496 L400.502667,349.497333 L428.504,318.102 L439.606,309.379333 C439.108667,308.828667 438.654667,308.238 438.249333,307.613333 L426.951333,316.078667 L389.378,335 L424.551333,311.921333 L437.53,306.37 C437.193333,305.713333 436.907333,305.026 436.677333,304.313333 L423.575333,309.565333 L382.385333,318.117333 L422.333333,304.928667 L436.306,302.926 C436.154,302.208667 436.056,301.471333 436.018,300.718 L422,302.4 L380,300 L422,297.6 L436.018,299.282 C436.056,298.528667 436.154,297.791333 436.306,297.074 L422.333333,295.071333 L382.385333,281.882667 L423.575333,290.434667 L436.677333,295.686667 C436.907333,294.974 437.193333,294.286667 437.53,293.63 L424.551333,288.078667 L389.378,265 L426.951333,283.921333 L438.249333,292.386667 C438.654667,291.762 439.108667,291.171333 439.606,290.620667 L428.504,281.898 L400.502667,250.502667 L431.898,278.504 L440.620667,289.606 C441.171333,289.108667 441.762,288.654667 442.386667,288.249333 L433.921333,276.951333 L415,239.378 L438.078667,274.551333 L443.63,287.53 C444.286667,287.193333 444.974,286.907333 445.686667,286.677333 L440.434667,273.575333 L431.882667,232.385333 L445.071333,272.333333 L447.074,286.306 C447.791333,286.154 448.528667,286.056 449.282,286.018 L447.6,272 L450,230 L452.4,272 L450.718,286.018 C451.471333,286.056 452.208667,286.154 452.926,286.306 L454.928667,272.333333 L468.117333,232.385333 L459.565333,273.575333 L454.313333,286.677333 C455.026,286.907333 455.713333,287.193333 456.37,287.53 L461.921333,274.551333 L485,239.378 L466.078667,276.951333 L457.613333,288.249333 C458.238,288.654667 458.828667,289.108667 459.379333,289.606 L468.102,278.504 L499.497333,250.502667 L471.496,281.898 L460.394,290.620667 C460.891333,291.171333 461.345333,291.762 461.750667,292.386667 L473.048667,283.921333 L510.622,265 L475.448667,288.078667 L462.47,293.63 C462.806667,294.286667 463.092667,294.974 463.322667,295.686667 L476.424667,290.434667 L517.614667,281.882667 L477.666667,295.071333 L463.694,297.074 C463.846,297.791333 463.944,298.528667 463.982,299.282 L478,297.6 L520,300 L478,302.4 L463.982,300.718 C463.944,301.471333 463.846,302.208667 463.694,302.926 L477.666667,304.928667 L517.614667,318.117333 L476.424667,309.565333 L463.322667,304.313333 C463.092667,305.026 462.806667,305.713333 462.47,306.37 L475.448667,311.921333 L510.622,335 L473.048667,316.078667 L461.750667,307.613333 C461.345333,308.238 460.891333,308.828667 460.394,309.379333 L471.496,318.102 L499.497333,349.497333 L468.102,321.496 L459.379333,310.394 C458.828667,310.891333 458.238,311.345333 457.613333,311.750667 L466.078667,323.048667 L485,360.622 L461.921333,325.448667 L456.37,312.47 C455.713333,312.806667 455.026,313.092667 454.313333,313.322667 L459.565333,326.424667 L468.117333,367.614667 L454.928667,327.666667 L452.926,313.694 C452.208667,313.846 451.471333,313.944 450.718,313.982" id="Fill-4" fill="#282862" sketch:type="MSShapeGroup"></path>
            <path d="M450,220 C494.182667,220 530,255.817333 530,300 C530,344.182667 494.182667,380 450,380 C405.817333,380 370,344.182667 370,300 C370,255.817333 405.817333,220 450,220 L450,220 Z M444.343333,369.774667 C446.209333,369.924 448.095333,370 450,370 C451.904667,370 453.790667,369.924 455.656667,369.774667 C455.453333,367.890667 456.791333,366.18 458.68,365.930667 C460.571333,365.682 462.309333,366.992667 462.596,368.87 C466.353333,368.187333 470.006,367.204667 473.528667,365.947333 C472.834667,364.176667 473.684,362.168667 475.448667,361.438 C477.212,360.707333 479.231333,361.525333 479.993333,363.266667 C483.420667,361.639333 486.694667,359.741333 489.788,357.600667 C488.668667,356.070667 488.970667,353.918 490.482667,352.758 C491.993333,351.598667 494.148,351.862667 495.336667,353.336667 C498.213333,350.889333 500.889333,348.213333 503.336667,345.336667 C501.862667,344.148 501.598667,341.993333 502.758,340.482667 C503.918,338.970667 506.070667,338.668 507.600667,339.788 C509.741333,336.694667 511.639333,333.420667 513.266667,329.993333 C511.525333,329.231333 510.707333,327.212 511.438,325.448 C512.168667,323.684 514.176667,322.834667 515.947333,323.528667 C517.204667,320.006 518.187333,316.353333 518.87,312.596 C516.993333,312.309333 515.682,310.572 515.931333,308.68 C516.18,306.791333 517.890667,305.454 519.774667,305.656667 C519.924,303.790667 520,301.904667 520,300 C520,298.095333 519.924,296.209333 519.774667,294.343333 C517.890667,294.546667 516.18,293.208667 515.930667,291.32 C515.682,289.428667 516.992667,287.690667 518.87,287.404 C518.187333,283.646667 517.204667,279.994 515.947333,276.471333 C514.176667,277.165333 512.168667,276.316 511.438,274.551333 C510.707333,272.788 511.525333,270.768667 513.266667,270.006667 C511.639333,266.579333 509.741333,263.305333 507.600667,260.212 C506.070667,261.331333 503.918,261.029333 502.758,259.517333 C501.598667,258.006667 501.862667,255.852 503.336667,254.663333 C500.889333,251.786667 498.213333,249.110667 495.336667,246.663333 C494.148,248.137333 491.993333,248.401333 490.482667,247.242 C488.970667,246.082 488.668,243.929333 489.788,242.399333 C486.694667,240.258667 483.420667,238.360667 479.993333,236.733333 C479.231333,238.474667 477.212,239.292667 475.448,238.562 C473.684,237.831333 472.834667,235.823333 473.528667,234.052667 C470.006,232.795333 466.353333,231.812667 462.596,231.13 C462.309333,233.006667 460.571333,234.318 458.68,234.068667 C456.791333,233.82 455.454,232.109333 455.656667,230.225333 C453.790667,230.076 451.904667,230 450,230 C448.095333,230 446.209333,230.076 444.343333,230.225333 C444.546667,232.109333 443.208667,233.82 441.32,234.069333 C439.428667,234.318 437.690667,233.007333 437.404,231.13 C433.646667,231.812667 429.994,232.795333 426.471333,234.052667 C427.165333,235.823333 426.316,237.831333 424.551333,238.562 C422.788,239.292667 420.768667,238.474667 420.006667,236.733333 C416.579333,238.360667 413.305333,240.258667 410.212,242.399333 C411.331333,243.929333 411.029333,246.082 409.517333,247.242 C408.006667,248.401333 405.852,248.137333 404.663333,246.663333 C401.786667,249.110667 399.110667,251.786667 396.663333,254.663333 C398.137333,255.852 398.401333,258.006667 397.242,259.517333 C396.082,261.029333 393.929333,261.332 392.399333,260.212 C390.258667,263.305333 388.360667,266.579333 386.733333,270.006667 C388.474667,270.768667 389.292667,272.788 388.562,274.552 C387.831333,276.316 385.823333,277.165333 384.052667,276.471333 C382.795333,279.994 381.812667,283.646667 381.13,287.404 C383.006667,287.690667 384.318,289.428 384.068667,291.32 C383.82,293.208667 382.109333,294.546 380.225333,294.343333 C380.076,296.209333 380,298.095333 380,300 C380,301.904667 380.076,303.790667 380.225333,305.656667 C382.109333,305.453333 383.82,306.791333 384.069333,308.68 C384.318,310.571333 383.007333,312.309333 381.13,312.596 C381.812667,316.353333 382.795333,320.006 384.052667,323.528667 C385.823333,322.834667 387.831333,323.684 388.562,325.448667 C389.292667,327.212 388.474667,329.231333 386.733333,329.993333 C388.360667,333.420667 390.258667,336.694667 392.399333,339.788 C393.929333,338.668667 396.082,338.970667 397.242,340.482667 C398.401333,341.993333 398.137333,344.148 396.663333,345.336667 C399.110667,348.213333 401.786667,350.889333 404.663333,353.336667 C405.852,351.862667 408.006667,351.598667 409.517333,352.758 C411.029333,353.918 411.332,356.070667 410.212,357.600667 C413.305333,359.741333 416.579333,361.639333 420.006667,363.266667 C420.768667,361.525333 422.788,360.707333 424.552,361.438 C426.316,362.168667 427.165333,364.176667 426.471333,365.947333 C429.994,367.204667 433.646667,368.187333 437.404,368.87 C437.690667,366.993333 439.428667,365.682 441.32,365.931333 C443.208667,366.18 444.546,367.890667 444.343333,369.774667 L444.343333,369.774667 Z" id="Fill-5" fill="#282862" sketch:type="MSShapeGroup"></path>
        </g>
    </g>
</svg>

<svg width="900" height="600" viewBox="0 0 900 600" xmlns="http://www.w3.org/2000/svg"><title>India</title><g fill="none" fill-rule="evenodd"><path d="M0 600h900V0H0v600z" fill="#EC9141"/><path d="M0 400h900V200H0v200z" fill="#FFF"/><path d="M0 600h900V400H0v200z" fill="#1E8040"/><path d="M450.718 313.982L452.4 328l-2.4 42-2.4-42 1.682-14.018c-.753-.038-1.49-.136-2.208-.288l-2.003 13.973-13.187 39.948 8.552-41.19 5.252-13.102c-.713-.23-1.4-.516-2.057-.853l-5.55 12.98L415 360.62l18.92-37.573 8.467-11.3c-.625-.405-1.216-.86-1.766-1.356l-8.722 11.102-31.395 28 28-31.394 11.103-8.723c-.497-.55-.95-1.142-1.357-1.767l-11.3 8.466L389.38 335l35.173-23.08 12.98-5.55c-.337-.657-.623-1.344-.853-2.057l-13.102 5.252-41.19 8.552 39.948-13.188 13.973-2.004c-.152-.717-.25-1.455-.288-2.208L422 302.4l-42-2.4 42-2.4 14.018 1.682c.038-.753.136-1.49.288-2.208l-13.973-2.003-39.948-13.187 41.19 8.552 13.102 5.252c.23-.713.516-1.4.853-2.057l-12.98-5.55L389.38 265l37.573 18.92 11.3 8.467c.405-.625.86-1.216 1.356-1.766l-11.102-8.722-28-31.395 31.394 28 8.723 11.103c.55-.497 1.142-.95 1.767-1.357l-8.466-11.3L415 239.38l23.08 35.173 5.55 12.98c.657-.337 1.344-.623 2.057-.853l-5.252-13.102-8.552-41.19 13.188 39.948 2.004 13.973c.717-.152 1.455-.25 2.208-.288L447.6 272l2.4-42 2.4 42-1.682 14.018c.753.038 1.49.136 2.208.288l2.003-13.973 13.187-39.948-8.552 41.19-5.252 13.102c.713.23 1.4.516 2.057.853l5.55-12.98L485 239.38l-18.92 37.573-8.467 11.3c.625.405 1.216.86 1.766 1.356l8.722-11.102 31.395-28-28 31.394-11.103 8.723c.497.55.95 1.142 1.357 1.767l11.3-8.466L510.62 265l-35.173 23.08-12.98 5.55c.337.657.623 1.344.853 2.057l13.102-5.252 41.19-8.552-39.948 13.188-13.973 2.004c.152.717.25 1.455.288 2.208L478 297.6l42 2.4-42 2.4-14.018-1.682c-.038.753-.136 1.49-.288 2.208l13.973 2.003 39.948 13.187-41.19-8.552-13.102-5.252c-.23.713-.516 1.4-.853 2.057l12.98 5.55L510.62 335l-37.573-18.92-11.3-8.467c-.405.625-.86 1.216-1.356 1.766l11.102 8.722 28 31.395-31.394-28-8.723-11.103c-.55.497-1.142.95-1.767 1.357l8.466 11.3L485 360.62l-23.08-35.173-5.55-12.98c-.657.337-1.344.623-2.057.853l5.252 13.102 8.552 41.19-13.188-39.948-2.004-13.973c-.717.152-1.455.25-2.208.288" fill="#282862"/><path d="M450 220c44.183 0 80 35.817 80 80s-35.817 80-80 80-80-35.817-80-80 35.817-80 80-80zm-5.657 149.775c1.866.15 3.752.225 5.657.225 1.905 0 3.79-.076 5.657-.225-.204-1.884 1.134-3.595 3.023-3.844 1.89-.248 3.63 1.063 3.916 2.94 3.757-.683 7.41-1.665 10.933-2.923-.695-1.77.154-3.778 1.92-4.51 1.762-.73 3.78.088 4.543 1.83 3.428-1.628 6.702-3.526 9.795-5.666-1.12-1.53-.817-3.682.695-4.842 1.51-1.16 3.665-.895 4.854.58 2.876-2.45 5.552-5.125 8-8-1.474-1.19-1.738-3.345-.58-4.855 1.16-1.512 3.314-1.815 4.844-.695 2.14-3.093 4.04-6.367 5.667-9.795-1.742-.762-2.56-2.78-1.83-4.545.732-1.764 2.74-2.613 4.51-1.92 1.258-3.522 2.24-7.175 2.923-10.932-1.877-.287-3.188-2.024-2.94-3.916.25-1.89 1.96-3.226 3.845-3.023.15-1.866.225-3.752.225-5.657 0-1.905-.076-3.79-.225-5.657-1.884.204-3.595-1.134-3.844-3.023-.248-1.89 1.063-3.63 2.94-3.916-.683-3.757-1.665-7.41-2.923-10.933-1.77.695-3.778-.154-4.51-1.92-.73-1.762.088-3.78 1.83-4.543-1.628-3.428-3.526-6.702-5.666-9.795-1.53 1.12-3.682.817-4.842-.695-1.16-1.51-.895-3.665.58-4.854-2.45-2.876-5.125-5.552-8-8-1.19 1.474-3.345 1.738-4.855.58-1.512-1.16-1.815-3.314-.695-4.844-3.093-2.14-6.367-4.04-9.795-5.667-.762 1.742-2.78 2.56-4.545 1.83-1.764-.732-2.613-2.74-1.92-4.51-3.522-1.258-7.175-2.24-10.932-2.923-.287 1.877-2.025 3.188-3.916 2.94-1.89-.25-3.226-1.96-3.023-3.845-1.866-.15-3.752-.225-5.657-.225-1.905 0-3.79.076-5.657.225.204 1.884-1.134 3.595-3.023 3.844-1.89.248-3.63-1.063-3.916-2.94-3.757.683-7.41 1.665-10.933 2.923.695 1.77-.154 3.778-1.92 4.51-1.762.73-3.78-.088-4.543-1.83-3.428 1.628-6.702 3.526-9.795 5.666 1.12 1.53.817 3.682-.695 4.842-1.51 1.16-3.665.895-4.854-.58-2.876 2.45-5.552 5.125-8 8 1.474 1.19 1.738 3.345.58 4.855-1.16 1.512-3.314 1.815-4.844.695-2.14 3.093-4.04 6.367-5.667 9.795 1.742.762 2.56 2.78 1.83 4.545-.732 1.764-2.74 2.613-4.51 1.92-1.258 3.522-2.24 7.175-2.923 10.932 1.877.287 3.188 2.024 2.94 3.916-.25 1.89-1.96 3.226-3.845 3.023-.15 1.866-.225 3.752-.225 5.657 0 1.905.076 3.79.225 5.657 1.884-.204 3.595 1.134 3.844 3.023.248 1.89-1.063 3.63-2.94 3.916.683 3.757 1.665 7.41 2.923 10.933 1.77-.695 3.778.154 4.51 1.92.73 1.762-.088 3.78-1.83 4.543 1.628 3.428 3.526 6.702 5.666 9.795 1.53-1.12 3.682-.817 4.842.695 1.16 1.51.895 3.665-.58 4.854 2.45 2.876 5.125 5.552 8 8 1.19-1.474 3.345-1.738 4.855-.58 1.512 1.16 1.815 3.314.695 4.844 3.093 2.14 6.367 4.04 9.795 5.667.762-1.742 2.78-2.56 4.545-1.83 1.764.732 2.613 2.74 1.92 4.51 3.522 1.258 7.175 2.24 10.932 2.923.287-1.877 2.025-3.188 3.916-2.94 1.89.25 3.226 1.96 3.023 3.845z" fill="#282862"/></g></svg>
